images/plants/grass.svg

<?xml version="1.0" standalone="no"?><!DOCTYPE svg PUBLIC "-//W3C//DTD SVG 1.1//EN" "http://www.w3.org/Graphics/SVG/1.1/DTD/svg11.dtd"><svg width="96px" height="120px" version="1.1" xmlns="http://www.w3.org/2000/svg" xmlns:xlink="http://www.w3.org/1999/xlink" xml:space="preserve" style="fill-rule:evenodd;clip-rule:evenodd;stroke-linejoin:round;stroke-miterlimit:1.41421;"><g><g id="grass" transform="matrix(1,0,0,1,0,-0.5)"><g transform="matrix(1,0,0,1,-6.1702,52.6016)"><path d="M10.3462,70.3984l-0.349,-8.456l5.704,-1.363l3.142,2.182l1.165,-3.274l3.609,0.819l1.164,-3.274l6.723,2.663l1.397,0.273l13.298,-2.936c0,0 8.029,6.417 8.612,6.69c0.582,0.273 19.788,-3.273 19.788,-3.273l3.841,-3.417l8.728,4.235l9.314,1.909l1.861,6.405l-87.997,0.817Z" style="fill:#679a45;fill-rule:nonzero;"/></g><g transform="matrix(1,0,0,1,-6.1702,52.6016)"><path d="M13.1987,68.3535l3.726,-5.864l6.139,5.932l-9.865,-0.068Z" style="fill:#35813f;fill-rule:nonzero;"/></g><g transform="matrix(1,0,0,1,-6.1702,52.6016)"><path d="M30.5425,68.3535l2.647,-3.273l1.747,0l4.627,-2.661l1.133,3.069l12.049,-1.022l4.801,3.682l-27.004,0.205Z" style="fill:#35813f;fill-rule:nonzero;"/></g><g transform="matrix(1,0,0,1,-6.1702,52.6016)"><path d="M69.4204,67.9433l0.697,-1.908l5.005,-0.82l1.457,-2.045l11.87,4.978l-19.029,-0.205Z" style="fill:#35813f;fill-rule:nonzero;"/></g></g></g></svg>

<?xml version="1.0" encoding="UTF-8" standalone="no"?>
<!DOCTYPE svg PUBLIC "-//W3C//DTD SVG 1.1//EN" "http://www.w3.org/Graphics/SVG/1.1/DTD/svg11.dtd">
<svg width="100%" height="100%" viewBox="0 0 96 24" version="1.1" xmlns="http://www.w3.org/2000/svg" xmlns:xlink="http://www.w3.org/1999/xlink" xml:space="preserve" style="fill-rule:evenodd;clip-rule:evenodd;stroke-linejoin:round;stroke-miterlimit:1.41421;">
    <g id="grass" transform="matrix(1,0,0,1,0,-96.5)">
        <g transform="matrix(1.08664,2.12199e-17,2.12199e-17,1,-10.8633,50.5676)">
            <path d="M9.973,69.932L9.997,61.942L15.701,60.579L18.843,62.761L20.008,59.487L23.617,60.306L24.781,57.032L31.504,59.695L32.901,59.968L46.199,57.032C46.199,57.032 54.228,63.449 54.811,63.722C55.393,63.995 74.599,60.449 74.599,60.449L78.44,57.032L87.168,61.267L98.364,63.729L98.343,69.932L9.973,69.932Z" style="fill:rgb(103,154,69);fill-rule:nonzero;"/>
        </g>
        <g transform="matrix(1.08664,2.12199e-17,2.12199e-17,1,-6.70477,50.5676)">
            <path d="M13.199,68.354L16.925,62.49L23.064,68.422L13.199,68.354Z" style="fill:rgb(53,129,63);fill-rule:nonzero;"/>
        </g>
        <g transform="matrix(1.08664,2.12199e-17,2.12199e-17,1,-6.70477,50.5676)">
            <path d="M30.542,68.354L33.189,65.081L34.936,65.081L39.564,62.42L40.697,65.489L52.745,64.467L57.546,68.149L30.542,68.354Z" style="fill:rgb(53,129,63);fill-rule:nonzero;"/>
        </g>
        <g transform="matrix(1.08664,2.12199e-17,2.12199e-17,1,-6.70477,50.5676)">
            <path d="M69.42,67.943L70.117,66.035L75.122,65.215L76.579,63.17L88.449,68.148L69.42,67.943Z" style="fill:rgb(53,129,63);fill-rule:nonzero;"/>
        </g>
    </g>
</svg>
